X:377
T:Munster Buttermilk
R:jig
Z:id:hn-jig-377
M:6/8
K:D
def edB|A2F FEF|AFF DFA|BAF DFA|
d2f edB|A2F FEF|AFE DEF|~E3 D3:|
|:A2B d2e|~f3 fed|~e3 edB|dcd edB|
A2B d2e|~f3 fed|edB Adf|edc d3:|
P:variations
|:dcd edB|A2F FEF|AFE EFA|BAF DFA|
def edB|A2F FEF|AFE DEF|EDC D3:|
|:A2B d2e|e~f2 fed|~e3 edB|def edB|
A2B d2e|fgf fed|edB Adf|edc d3:|

